X:1
T:5 Little Love Songs
T:There’s a bird beneath your window
T:To Berrick von Norden 
T:5 Little Love Songs
T:Liza Lehmann
T:1. There’s a bird beneath your window
T:Cora Randall Fabbri
T:Creative Commons copyright waiver (CC0 1.0 Universal)
T:Creative Commons copyright waiver (CC0 1.0 Universal)
T:Creative Commons copyright waiver (CC0 1.0 Universal)
C:Liza Lehmann
Z:Cora Randall Fabbri
Z:Creative Commons copyright waiver (CC0 1.0 Universal)
%%score ( 1 2 ) { ( 3 6 ) | ( 4 5 ) }
L:1/8
M:3/4
K:G
V:1 treble nm="Voice"
V:2 treble 
V:3 treble nm="Piano"
V:6 treble 
V:4 bass 
V:5 bass 
V:1
 z2 | z6 | z6 | z6 | z6 | z6 | z6 | z6 | z2 z2!f! B3/2 c/ | d3 G B d | e2 !breath!B2 G3/2 A/ | z6 | %12
w: ||||||||There's a|bird be- neath your|win- dow, There's a||
 z6 | z6 | z6 | z6 | z6 | z6 | z6 | z6 | z6 | z6 | z6 | z6 | z6 | z6 | z4!pp! (!fermata!^A>d) | %27
w: ||||||||||||||your _|
 d6- | d4 !fermata!z2 |] %29
w: heart.|_|
V:2
 x2 | x6 | x6 | x6 | x6 | x6 | x6 | x6 | x6 | x3 g f d | x6 | x6 | x6 | x6 | x6 | x6 | x6 | x6 | %18
 x6 | x6 | x6 | x6 | x6 | x6 | x6 | x6 | x6 | x6 | x6 |] %29
V:3
 z2 | z6 | z6 | z6 | z6 | z6 | z6 | z6 | z6 | z6 | z6 | z6 | z6 | z6 | z6 | z6 | z6 | z6 | z6 | %19
 z6 | z6 | z6 | z6 | z6 | z6 | z6 | z4!pp! !fermata![^A,DF^A]2 | %27
 z2 !tenuto!B,!tenuto!D!tenuto!G!tenuto!B |"_L.H." !fermata![Bd]6 |] %29
V:4
 z2 | z6 | z6 | z6 | z6 | z6 | z6 | z6 | z6 | z6 | z6 | z6 | z6 | z6 | z6 | z6 | z6 | z6 | z6 | %19
 z6 | z6 | z6 | z6 | z6 | z6 | z6 | z4 D,2 | z2 !tenuto!B,,!tenuto!E,!tenuto!G,!tenuto!B, | %28
 [G,,,G,,]4 [G,,,G,,]2 |] %29
V:5
 x2 | x6 | x6 | x6 | x6 | x6 | x6 | x6 | x6 | x6 | x6 | x6 | x6 | x6 | x6 | x6 | x6 | x6 | x6 | %19
 x6 | x6 | x6 | x6 | x6 | x6 | x6 | z4 !fermata!D,,2 | [G,,,G,,]6- | x6 |] %29
V:6
 x2 | x6 | x6 | x6 | x6 | x6 | x6 | x6 | x6 | x6 | x6 | x6 | x6 | x6 | x6 | x6 | x6 | x6 | x6 | %19
 x6 | x6 | x6 | x6 | x6 | x6 | x6 | x6 | x6 | !>!A>G G2 z2 |] %29

